src/main/resources/react/src/img/showAdv/noPhoto.svg

<svg width="299" height="281" fill="none" xmlns="http://www.w3.org/2000/svg"><path d="M264.959.35H33.787C15.153.35 0 15.498 0 34.154v212.461c0 18.634 15.153 33.766 33.787 33.766h231.171c18.634 0 33.771-15.132 33.771-33.766V34.154C298.73 15.498 283.593.35 264.959.35zm-71.785 50.273c18.02 0 32.634 14.615 32.634 32.634s-14.615 32.634-32.634 32.634c-18.025 0-32.634-14.615-32.634-32.634s14.609-32.634 32.634-32.634zm61.189 198.526H49.039c-9.013 0-13.027-6.521-8.964-14.566l56.006-110.93c4.058-8.044 11.792-8.762 17.269-1.605l56.316 73.596c5.477 7.158 15.05 7.767 21.386 1.354l13.777-13.951c6.331-6.413 15.659-5.619 20.826 1.762l35.675 50.959c5.157 7.392 2.046 13.381-6.967 13.381z" fill="#EEE"/></svg>

<svg width = "299" height = "281" viewBox = "0 0 299 281" fill = "none" xmlns = "http://www.w3.org/2000/svg">
    <path
            d = "M264.959 0.349976H33.787C15.153 0.349976 0 15.498 0 34.154V246.615C0 265.249 15.153 280.381 33.787 280.381H264.958C283.592 280.381 298.729 265.249 298.729 246.615V34.154C298.73 15.498 283.593 0.349976 264.959 0.349976ZM193.174 50.623C211.194 50.623 225.808 65.238 225.808 83.257C225.808 101.276 211.193 115.891 193.174 115.891C175.149 115.891 160.54 101.276 160.54 83.257C160.54 65.238 175.149 50.623 193.174 50.623ZM254.363 249.149H149.362H49.039C40.026 249.149 36.012 242.628 40.075 234.583L96.081 123.653C100.139 115.609 107.873 114.891 113.35 122.048L169.666 195.644C175.143 202.802 184.716 203.411 191.052 196.998L204.829 183.047C211.16 176.634 220.488 177.428 225.655 184.809L261.33 235.768C266.487 243.16 263.376 249.149 254.363 249.149Z"
            fill = "#EEEEEE"/>
</svg>
